X: 1
T: Browney Banks, The
M: 4/4
L: 1/8
R: hornpipe
K: Dmaj
|:D>E|F2A>F G>AF>A|(3dcd e>d e>fA>d|B>GD>B A>Fd>F|G>FE>D E2D>E|
F2A>F G>AF>A|(3dcd e>d e>fA>d|B>Gd>B A>df>a|g>fe>c d2:|
d>e|f>da>f e>d(3cde|d>Be>d c>A(3FGA|B>Gd>B A>Fd>F|G>FE>D E2d>e|
f>da>f e>d(3cde|d>Be>d c>A(3FGA|B>Gd>B A>df>a|g>fe>c d2d>e|
f>da>f e>d(3cde|d>Be>d c>A(3FGA|B>Gd>B A>Fd>F|G>FE>D E2D>E|
F2A>F G>AF>A|(3dcd e>d e>fA>d|B>Gd>B A>df>a|g>fe>c d2||
